!!!COM: Palestrina, Giovanni Perluigi da
!!!OPR: Missa Pater noster
!!!OTL: Agnus II
**kern	**kern	**kern	**kern	**kern
*Ibass	*Itenor	*Icalto	*Icalto	*Icant
!Bassus	!Tenor	!Altus 2	!Altus 1	!Cantus
*clefF4	*clefGv2	*clefG2	*clefG2	*clefG2
*k[]	*k[]	*k[]	*k[]	*k[]
*D:dor	*D:dor	*D:dor	*D:dor	*D:dor
*M4/2	*M4/2	*M4/2	*M4/2	*M4/2
=1	=1	=1	=1	=1
0r	0r	0r	0f	0r
=2	=2	=2	=2	=2
1r	0c	0r	1g	0r
[1F	.	.	1a	.
=3	=3	=3	=3	=3
1F]	1.d	0r	1a	0r
1G	.	.	1b-	.
.	[2e	.	.	.
=4	=4	=4	=4	=4
1A	2e]	0c	0a	0r
.	2e	.	.	.
1A	2f	.	.	.
.	[2e	.	.	.
=5	=5	=5	=5	=5
1B-	4e]	1d	2.f	0r
.	4d	.	.	.
.	2d	.	.	.
.	.	.	4g	.
1A	4c	1e	4a	.
.	4d	.	4b	.
.	4e	.	[2cc	.
.	4f	.	.	.
=6	=6	=6	=6	=6
1G	1g	1e	2cc]	1r
.	.	.	2b	.
2.F	[1c	1f	[1a	[1cc
4G	.	.	.	.
=7	=7	=7	=7	=7
4A	1c]	1e	2a]	1cc]
4B	.	.	.	.
1c	.	.	2g	.
.	1G	1d	[1g	1dd
2B	.	.	.	.
=8	=8	=8	=8	=8
0c	2r	2.c	1g]	1ee
.	2g	.	.	.
.	.	4d	.	.
.	2c	4e	1g	1ee
.	.	4f	.	.
.	2e	[2g	.	.
=9	=9	=9	=9	=9
0r	1d	2g]	2.a	1ff
.	.	2f	.	.
.	.	.	4b	.
.	1c	[1g	4cc	1ee
.	.	.	4g	.
.	.	.	[2cc	.
=10	=10	=10	=10	=10
1r	2r	1g]	2cc]	1dd
.	2G	.	2b	.
2r	4A	1r	1cc	2cc
.	4B	.	.	.
[2A	4c	.	.	4a
.	4d	.	.	4b
=11	=11	=11	=11	=11
2A]	4e	0r	2a	4cc
.	4f	.	.	4dd
2G	2g	.	2b	1ee
2A	1f	.	2cc	.
2B	.	.	4b	2dd
.	.	.	4a	.
=12	=12	=12	=12	=12
1.c	1e	2r	0g	1ee
.	.	1e	.	.
.	2r	.	.	1r
2B	[2g	2d	.	.
=13	=13	=13	=13	=13
1A	2g]	2e	1c	1r
.	2f	2f	.	.
1G	2e	[1g	1r	[1b
.	4d	.	.	.
.	4c	.	.	.
=14	=14	=14	=14	=14
0r	1d	2g]	2r	2b]
.	.	2f	1a	2a
.	2r	1e	.	2b
.	[2g	.	2g	2cc
=15	=15	=15	=15	=15
0r	2g]	1d	2a	2.dd
.	1f	.	2b	.
.	.	.	.	8cc
.	.	.	.	8b
.	.	1r	[1cc	2a
.	2e	.	.	2g
=16	=16	=16	=16	=16
0r	2f	0r	2cc]	2a
.	2g	.	2b	1g
.	1d	.	1a	.
.	.	.	.	2f#
=17	=17	=17	=17	=17
2r	1G	0r	2.g	2g
1G	.	.	.	1b-
.	.	.	4f	.
.	2r	.	4d	.
.	.	.	4e	.
2F	[2d	.	2f	2a
=18	=18	=18	=18	=18
2G	2d]	1r	1e	2b-
2A	2c	.	.	2a
[1B-	2.d	2r	1r	2g
.	.	[2d	.	[2f
.	4e	.	.	.
=19	=19	=19	=19	=19
2B-]	1.f	2d]	0r	4f]
.	.	.	.	4g
2A	.	2c	.	4a
.	.	.	.	8g
.	.	.	.	8a
1G	.	2d	.	2b-
.	2e	2e	.	2g
=20	=20	=20	=20	=20
2.F	2d	1.f	2r	1a
.	2.c	.	1a	.
4G	.	.	.	.
4A	.	.	.	1r
4B	4d	.	.	.
[2c	2e	2e	2g	.
=21	=21	=21	=21	=21
2c]	2f	1d	2a	1r
2B	2g	.	2b	.
1A	2a	2.c	[1cc	2r
.	2e	.	.	[2ee
.	.	4d	.	.
=22	=22	=22	=22	=22
1G	1g	4e	2cc]	2ee]
.	.	4f	.	.
.	.	1g	2b	2dd
1r	2r	.	1a	2ee
.	[2d	2f	.	2ff
=23	=23	=23	=23	=23
0r	2d]	1e	2.g	1.gg
.	2c	.	.	.
.	.	.	4a	.
.	4d	1d	4b	.
.	4e	.	4cc	.
.	4f	.	[2dd	2ff
.	4g	.	.	.
=24	=24	=24	=24	=24
0r	2a	0r	2dd]	1ee
.	2A	.	2cc	.
.	2B	.	2b	2dd
.	2c	.	[2a	2cc
=25	=25	=25	=25	=25
1r	2d	0r	2a]	2b
.	2e	.	2g	2.cc
1F	2.f	.	4a	.
.	.	.	4b	4b
.	.	.	4cc	2a
.	4e	.	4a	.
=26	=26	=26	=26	=26
1G	2d	0r	2b	0g
.	2e	.	1cc	.
1G	2d	.	.	.
.	[2g	.	2b	.
=27	=27	=27	=27	=27
1A	2g]	1c	1cc	2r
.	2f#	.	.	1cc
2.G	2g	1d	1r	.
.	2G	.	.	2b
8F	.	.	.	.
8E	.	.	.	.
=28	=28	=28	=28	=28
2F	2A	1d	1r	2a
2G	2B	.	.	1g
1C	1c	1e	1g	.
.	.	.	.	[2gg
=29	=29	=29	=29	=29
0r	2r	2.d	1a	2gg]
.	2d	.	.	2ff
.	.	8c	.	.
.	.	8B	.	.
.	2e	2c	1a	2ee
.	2f#	2d	.	[2dd
=30	=30	=30	=30	=30
0r	1g	1G	1b	2dd]
.	.	.	.	1gg
.	1d	1r	1a	.
.	.	.	.	2ff#
=31	=31	=31	=31	=31
1c	1e	0r	2g	1gg
.	.	.	2g	.
1A	1e	.	1a	1cc
=32	=32	=32	=32	=32
1d	1f	1r	1a	1dd
1G	1d	1g	1b	1dd
=33	=33	=33	=33	=33
1c	1c	1e	0cc	1ee
1A	2r	1a	.	1ee
.	2e	.	.	.
=34	=34	=34	=34	=34
1r	1f#	1d	2a	2dd
.	.	.	2a	1dd
1G	4g	1g	1b	.
.	4f	.	.	.
.	4e	.	.	[2ee
.	4d	.	.	.
=35	=35	=35	=35	=35
1A	4c	1e	2.cc	2ee]
.	4B	.	.	.
.	2A	.	.	1ee
.	.	.	4b	.
1A	1c	1r	4a	.
.	.	.	4g	.
.	.	.	[2a	[2ff
=36	=36	=36	=36	=36
1B-	2d	1d	4a]	2ff]
.	.	.	8g	.
.	.	.	8f	.
.	2G	.	2g	4ee
.	.	.	.	4dd
1A	1r	1e	2a	4cc
.	.	.	.	4dd
.	.	.	[2cc	4ee
.	.	.	.	4ff
=37	=37	=37	=37	=37
1G	2r	1e	4cc]	1gg
.	.	.	4b	.
.	2g	.	2b	.
1r	2a	1f	4a	2cc
.	.	.	4f	.
.	2f	.	[2a	[2dd
=38	=38	=38	=38	=38
0r	1g	1e	4a]	2dd]
.	.	.	4g	.
.	.	.	1g	2cc
.	1a	1d	.	2dd
.	.	.	2f	2a
=39	=39	=39	=39	=39
1G	2.g	0r	2e	4b
.	.	.	.	4cc
.	.	.	2d	4dd
.	4f	.	.	4b
1A	2e	.	1a	2cc
.	2f	.	.	[2dd
=40	=40	=40	=40	=40
1A	1e	1r	2r	2dd]
.	.	.	1a	2cc
1B-	2d	1d	.	1dd
.	2G	.	2g	.
=41	=41	=41	=41	=41
1A	4c	1e	4a	2.cc
.	4d	.	4b	.
.	4e	.	4cc	.
.	4f	.	4a	4dd
2G	2g	1e	2b	4ee
.	.	.	.	4ff
2A	[2c	.	2cc	[2ee
=42	=42	=42	=42	=42
2.F	4c]	1f	0a	4ee]
.	4A	.	.	4dd
.	2.a	.	.	1dd
4G	.	.	.	.
1A	.	1e	.	.
.	4g	.	.	.
.	2e	.	.	2cc#
=43	=43	=43	=43	=43
0D	0f#	0d	0a	0dd
==	==	==	==	==
*-	*-	*-	*-	*-
!!!CDT: 1525/^1526/-1594/2/2
!!!OCY: Italia
!!!AGN: Mass (Paraphrase)
!!!AST: renaissance, vocal
!!!ASW: Prayer
!!!PWK: Masses, Book 10
!!!RNB: Cadence finals: A
!!!YOR: Le Opere Complete, v. 27, p. 199
!!!YOO: Rome, Italy: Fratelli Scalera
!!!END: 1992//
!!!EED: John Miller
!!!YEC: Copyright 2000, John Miller
!!!YEN: United States of America
!!!YEM: Rights to all derivative electronic formats reserved.
!!!YEM: Refer to licensing agreement for further details.
!!!YEM: This file must be accompanied by the licensing agreement.
!!!YEM: A copy of the licensing agreement may be found at http://www.music-cog.ohio-state.edu/HumdrumDatabases/Palestrina/license.txt
!!!EMD: converted to Humdrum by Bret Aarden
